Gruvbox-Plus-Dark/actions/16/escape-direction-horizontal.svg

<svg xmlns="http://www.w3.org/2000/svg" width="16" height="16" viewBox="0 0 16 16">
 <defs>
  <style id="current-color-scheme" type="text/css">
   .ColorScheme-Text { color:#ebdbb2; } .ColorScheme-Highlight { color:#458588; }
  </style>
 </defs>
 <path style="fill:currentColor" class="ColorScheme-Text" d="M 1 1.0039062 L 1 15.003906 L 15 15.003906 L 15 1.0039062 L 1 1.0039062 z M 3 3.0039062 L 13 3.0039062 L 13 7.0039062 L 9.7226562 7.0039062 C 9.5522563 6.7108063 9.3140625 6.4671188 9.0234375 6.2929688 C 9.0084375 6.2839687 8.9915625 6.2765781 8.9765625 6.2675781 C 8.8572375 6.2000781 8.7305563 6.1453656 8.5976562 6.1035156 C 8.5594062 6.0915156 8.5217219 6.0800625 8.4824219 6.0703125 C 8.3269469 6.0313125 8.167475 6.0039062 8 6.0039062 C 7.832525 6.0039062 7.6730531 6.0313125 7.5175781 6.0703125 C 7.4785781 6.0800625 7.4406688 6.0915156 7.4023438 6.1035156 C 7.2694438 6.1455156 7.1427625 6.2003031 7.0234375 6.2675781 C 7.0076875 6.2765781 6.9915625 6.2839687 6.9765625 6.2929688 C 6.6859375 6.4671187 6.4477437 6.7108062 6.2773438 7.0039062 L 3 7.0039062 L 3 3.0039062 z M 3 9.0039062 L 6.2773438 9.0039062 C 6.4477437 9.2970062 6.6859375 9.5406937 6.9765625 9.7148438 C 6.9915625 9.7238437 7.0084375 9.7331875 7.0234375 9.7421875 C 7.1427625 9.8096875 7.2694438 9.8644 7.4023438 9.90625 C 7.4405937 9.91825 7.4782781 9.92775 7.5175781 9.9375 C 7.6730531 9.9765 7.832525 10.005859 8 10.005859 C 8.167475 10.005859 8.3269469 9.9765 8.4824219 9.9375 C 8.5214219 9.92775 8.5593312 9.91825 8.5976562 9.90625 C 8.7305562 9.86425 8.8572375 9.8094625 8.9765625 9.7421875 C 8.9923125 9.7331875 9.0084375 9.7238438 9.0234375 9.7148438 C 9.3140625 9.5406937 9.5522563 9.2970063 9.7226562 9.0039062 L 13 9.0039062 L 13 13.003906 L 3 13.003906 L 3 9.0039062 z"/>
</svg>

<svg width="16" height="16" version="1.1" viewBox="0 0 16 16" xmlns="http://www.w3.org/2000/svg">
  <defs>
    <style type="text/css">.ColorScheme-Text { color:#ebdbb2; } .ColorScheme-Highlight { color:#458588; }</style>
  </defs>
  <path class="ColorScheme-Text" d="m1 1.004v14h14v-14zm2 2h10v4h-3.277c-0.4778-0.8218-1.316-1-1.723-1-0.4059 0-1.245 0.1775-1.723 1h-3.277zm0 6h3.277c0.5626 0.9677 1.581 1.002 1.723 1.002 0.1477 0 1.161-0.03594 1.723-1.002h3.277v4h-10z" fill="currentColor"/>
</svg>
